src/assets/filled/Bitcoin.svg

<?xml version="1.0" encoding="UTF-8"?>
<svg width="24" height="24" viewBox="0 0 24 24" xmlns="http://www.w3.org/2000/svg">
 <path d="m14.97 12.75h-5.44v2.83h5.44c0.95 0 1.73-0.64 1.73-1.42s-0.78-1.41-1.73-1.41z"/>
 <path d="m12 2c-5.52 0-10 4.48-10 10s4.48 10 10 10 10-4.48 10-10-4.48-10-10-10zm2.97 15.08h-1.65v1.42c0 0.41-0.34 0.75-0.75 0.75s-0.75-0.34-0.75-0.75v-1.42h-1.21v1.42c0 0.41-0.34 0.75-0.75 0.75s-0.75-0.34-0.75-0.75v-1.42h-2.06c-0.41 0-0.75-0.34-0.75-0.75s0.34-0.75 0.75-0.75h0.98v-7.16h-0.98c-0.41 0-0.75-0.34-0.75-0.75s0.34-0.75 0.75-0.75h2.06v-1.42c0-0.41 0.34-0.75 0.75-0.75s0.75 0.34 0.75 0.75v1.42h1.21v-1.42c0-0.41 0.34-0.75 0.75-0.75s0.75 0.34 0.75 0.75v1.42h0.88c1.55 0 2.92 1.36 2.92 2.92 0 0.67-0.24 1.28-0.62 1.78 1.01 0.49 1.7 1.45 1.7 2.56 0 1.59-1.45 2.9-3.23 2.9z"/>
 <path d="m15.62 9.8302c0-0.66-0.62-1.42-1.42-1.42h-4.67v2.83h4.67c0.78 0.01 1.42-0.63 1.42-1.41z"/>
</svg>

<svg width="24" height="24" viewBox="0 0 24 24"  xmlns="http://www.w3.org/2000/svg">
<path d="M14.97 12.75H14.2H9.53003V15.58H10.84H14.97C15.92 15.58 16.7 14.94 16.7 14.16C16.7 13.38 15.92 12.75 14.97 12.75Z" />
<path d="M12 2C6.48 2 2 6.48 2 12C2 17.52 6.48 22 12 22C17.52 22 22 17.52 22 12C22 6.48 17.52 2 12 2ZM14.97 17.08H13.32V18.5C13.32 18.91 12.98 19.25 12.57 19.25C12.16 19.25 11.82 18.91 11.82 18.5V17.08H10.84H10.61V18.5C10.61 18.91 10.27 19.25 9.86 19.25C9.45 19.25 9.11 18.91 9.11 18.5V17.08H8.78H7.05C6.64 17.08 6.3 16.74 6.3 16.33C6.3 15.92 6.64 15.58 7.05 15.58H8.03V12V8.42H7.05C6.64 8.42 6.3 8.08 6.3 7.67C6.3 7.26 6.64 6.92 7.05 6.92H8.78H9.11V5.5C9.11 5.09 9.45 4.75 9.86 4.75C10.27 4.75 10.61 5.09 10.61 5.5V6.92H10.84H11.82V5.5C11.82 5.09 12.16 4.75 12.57 4.75C12.98 4.75 13.32 5.09 13.32 5.5V6.92H14.2C15.75 6.92 17.12 8.28 17.12 9.84C17.12 10.51 16.88 11.12 16.5 11.62C17.51 12.11 18.2 13.07 18.2 14.18C18.2 15.77 16.75 17.08 14.97 17.08Z" />
<path d="M15.62 9.83016C15.62 9.17016 15 8.41016 14.2 8.41016H10.84H9.53003V11.2402H14.2C14.98 11.2502 15.62 10.6102 15.62 9.83016Z" />
</svg>
